; generated by PrusaSlicer 2.7.1 on 2024-01-03 at 17:30:27 UTC

; 

; external perimeters extrusion width = 0.42mm
; perimeters extrusion width = 0.44mm
; infill extrusion width = 0.44mm
; solid infill extrusion width = 0.44mm
; top infill extrusion width = 0.40mm
; first layer extrusion width = 0.42mm

M201 X500 Y500 Z100 E5000 ; sets maximum accelerations, mm/sec^2
M203 X500 Y500 Z10 E60 ; sets maximum feedrates, mm / sec
M204 P500 R1000 T500 ; sets acceleration (P, T) and retract acceleration (R), mm/sec^2
M205 X8.00 Y8.00 Z0.40 E5.00 ; sets the jerk limits, mm/sec
M205 S0 T0 ; sets the minimum extruding and travel feed rate, mm/sec

; printing object table-Part.stl id:0 copy 0
; stop printing object table-Part.stl id:0 copy 0

;TYPE:Custom
G90 ; use absolute coordinates
M83 ; extruder relative mode
M104 S150 ; set temporary nozzle temp to prevent oozing during homing
M140 S70 ; set final bed temp
G4 S30 ; allow partial nozzle warmup
G28 ; home all axis
G1 Z50 F240
G1 X2.0 Y10 F3000
M104 S115 ; set final nozzle temp
M190 S70 ; wait for bed temp to stabilize
M109 S230 ; wait for nozzle temp to stabilize
G1 Z0.28 F240
G92 E0
G1 X2.0 Y140 E10 F1500 ; prime the nozzle
G1 X2.3 Y140 F5000
G92 E0
G1 X2.3 Y10 E10 F1200 ; prime the nozzle
G92 E0
G21 ; set units to millimeters
G90 ; use absolute coordinates
M83 ; use relative distances for extrusion
; Filament gcode
M107
;LAYER_CHANGE
;Z:0.2
;HEIGHT:0.2
;BEFORE_LAYER_CHANGE
G92 E0
;0.2


G1 E-6 F1500
G1 Z.2 F9000
;AFTER_LAYER_CHANGE
;0.2
G1 X78.014 Y75.967
G1 Z.2
G1 E6 F2400
M204 P500
;TYPE:Skirt/Brim
;WIDTH:0.42
G1 F1200
G3 X78.14 Y75.838 I66.75 J64.998 E.00565
G1 X83.509 Y71.425 E.21791
G3 X92.225 Y66.235 I51.947 J77.326 E.31822
G1 X98.695 Y63.696 E.21792
G3 X108.588 Y61.453 I25.51 J89.596 E.31822
G1 X115.525 Y61.038 E.21789
G1 X118.404 Y61.174 E.09037
G3 X125.628 Y61.963 I-6.138 J89.684 E.22791
G1 X132.354 Y63.712 E.2179
G3 X141.676 Y67.713 I-32.517 J88.625 E.31822
G1 X147.532 Y71.455 E.2179
G3 X155.162 Y78.14 I-57.495 J73.306 E.31822
G1 X159.575 Y83.509 E.21791
G3 X164.765 Y92.225 I-77.331 J51.95 E.31822
G1 X167.304 Y98.695 E.21792
G3 X169.469 Y107.984 I-95.112 J27.066 E.29917
G1 X169.962 Y116.056 E.25356
G3 X169.037 Y125.628 I-97.41 J-4.582 E.30164
G1 X167.288 Y132.354 E.2179
G3 X163.287 Y141.676 I-87.48 J-32.026 E.31823
G1 X159.545 Y147.532 E.2179
G3 X153.303 Y154.744 I-77.806 J-61.04 E.29918
G1 X147.063 Y159.887 E.25354
G3 X138.775 Y164.765 I-53.555 J-81.507 E.30166
G1 X132.305 Y167.304 E.21792
G3 X122.412 Y169.547 I-25.534 J-89.702 E.31822
G1 X114.944 Y169.962 E.23452
G3 X105.372 Y169.037 I4.582 J-97.41 E.30164
G1 X98.646 Y167.288 E.2179
G3 X89.324 Y163.287 I32.026 J-87.481 E.31823
G1 X83.468 Y159.545 E.2179
G3 X76.256 Y153.303 I61.039 J-77.803 E.29918
G1 X71.113 Y147.063 E.25354
G3 X66.235 Y138.775 I81.507 J-53.555 E.30166
G1 X63.696 Y132.305 E.21792
G3 X61.453 Y122.412 I89.705 J-25.535 E.31822
G1 X61.038 Y114.944 E.23452
G3 X61.963 Y105.372 I97.41 J4.582 E.30164
G1 X63.712 Y98.646 E.2179
G3 X67.713 Y89.324 I87.586 J32.071 E.31823
G1 X71.455 Y83.468 E.2179
G3 X77.973 Y76.01 I73.309 J57.497 E.31071
G1 X78.242 Y76.271 F9000
G1 F1200
G3 X78.38 Y76.129 I67.147 J65.236 E.00621
G1 X83.748 Y71.716 E.21788
G3 X92.363 Y66.586 I52.136 J77.744 E.31453
G1 X98.832 Y64.047 E.21789
G3 X108.611 Y61.83 I25.56 J90.052 E.31455
G1 X115.548 Y61.415 E.21789
G1 X118.382 Y61.55 E.08896
G3 X125.533 Y62.328 I-6.142 J89.787 E.2256
G1 X132.259 Y64.077 E.2179
G3 X141.473 Y68.03 I-32.738 J89.008 E.31451
G1 X147.329 Y71.772 E.2179
G3 X154.871 Y78.38 I-57.834 J73.615 E.31455
G1 X159.284 Y83.748 E.21788
G3 X164.414 Y92.363 I-77.749 J52.139 E.31453
G1 X166.953 Y98.832 E.21789
G3 X169.099 Y108.057 I-95.372 J27.053 E.29708
G1 X169.586 Y116.034 E.25058
G3 X168.672 Y125.533 I-97.698 J-4.601 E.29933
G1 X166.923 Y132.259 E.2179
G3 X162.97 Y141.473 I-87.878 J-32.253 E.31451
G1 X159.228 Y147.329 E.2179
G3 X153.026 Y154.488 I-77.948 J-61.259 E.2971
G1 X146.859 Y159.57 E.25056
G3 X138.637 Y164.414 I-53.708 J-81.751 E.29933
G1 X132.168 Y166.953 E.21789
G3 X122.389 Y169.17 I-25.583 J-90.155 E.31454
G1 X114.966 Y169.586 E.23311
G3 X105.467 Y168.672 I4.601 J-97.698 E.29933
G1 X98.741 Y166.923 E.2179
G3 X89.527 Y162.97 I32.254 J-87.879 E.31451
G1 X83.671 Y159.228 E.2179
G3 X76.512 Y153.026 I61.257 J-77.945 E.2971
G1 X71.43 Y146.859 E.25056
G3 X66.586 Y138.637 I81.752 J-53.708 E.29933
G1 X64.047 Y132.168 E.21789
G3 X61.83 Y122.389 I90.158 J-25.584 E.31454
G1 X61.414 Y114.966 E.23311
G3 X62.328 Y105.467 I97.698 J4.601 E.29933
G1 X64.077 Y98.741 E.2179
G3 X68.03 Y89.527 I87.981 J32.297 E.31451
G1 X71.772 Y83.671 E.2179
G3 X78.2 Y76.314 I73.617 J57.836 E.30646
G1 X78.469 Y76.575 F9000
G1 F1200
G3 X78.619 Y76.421 I67.587 J65.51 E.00674
G1 X83.988 Y72.007 E.21793
G3 X92.5 Y66.937 I52.351 J78.209 E.31079
G1 X98.97 Y64.398 E.21792
G3 X108.633 Y62.206 I25.622 J90.56 E.31082
G1 X115.57 Y61.791 E.21789
G1 X118.36 Y61.927 E.08758
G3 X125.438 Y62.693 I-6.148 J89.921 E.22328
G1 X132.164 Y64.442 E.2179
G3 X141.27 Y68.348 I-32.98 J89.439 E.31081
G1 X147.126 Y72.09 E.2179
G3 X154.579 Y78.619 I-58.209 J73.964 E.31081
G1 X158.993 Y83.988 E.21793
G3 X164.063 Y92.5 I-78.214 J52.354 E.31079
G1 X166.602 Y98.97 E.21792
G3 X168.729 Y108.13 I-95.664 J27.045 E.29496
G1 X169.209 Y116.012 E.24759
G3 X168.307 Y125.438 I-97.975 J-4.618 E.29701
G1 X166.558 Y132.164 E.2179
G3 X162.652 Y141.27 I-88.326 J-32.502 E.31081
G1 X158.91 Y147.126 E.2179
G3 X152.75 Y154.232 I-78.114 J-61.5 E.29498
G1 X146.655 Y159.253 E.2476
G3 X138.5 Y164.063 I-53.857 J-81.987 E.29697
G1 X132.03 Y166.602 E.21792
G3 X122.367 Y168.794 I-25.644 J-90.66 E.31082
G1 X114.988 Y169.209 E.23173
G3 X105.562 Y168.307 I4.618 J-97.975 E.29701
G1 X98.836 Y166.558 E.2179
G3 X89.73 Y162.652 I32.502 J-88.327 E.31081
G1 X83.874 Y158.91 E.2179
G3 X76.768 Y152.75 I61.498 J-78.111 E.29498
G1 X71.747 Y146.655 E.2476
G3 X66.937 Y138.5 I81.987 J-53.857 E.29697
G1 X64.398 Y132.03 E.21792
G3 X62.206 Y122.367 I90.664 J-25.645 E.31082
G1 X61.791 Y114.988 E.23173
G3 X62.693 Y105.562 I97.974 J4.618 E.29701
G1 X64.442 Y98.836 E.2179
G3 X68.348 Y89.73 I88.425 J32.545 E.31081
G1 X72.09 Y83.874 E.2179
G3 X78.427 Y76.619 I73.966 J58.211 E.30216
G1 X78.697 Y76.879 F9000
G1 F1200
G3 X78.859 Y76.712 I68.071 J65.824 E.0073
G1 X84.227 Y72.298 E.2179
G3 X92.638 Y67.288 I52.598 J78.725 E.3071
G1 X99.108 Y64.749 E.21792
G3 X108.656 Y62.583 I25.697 J91.127 E.30711
G1 X115.593 Y62.168 E.21789
G1 X118.338 Y62.303 E.08617
G3 X125.343 Y63.058 I-6.158 J90.095 E.22096
G1 X132.069 Y64.807 E.2179
G3 X141.067 Y68.666 I-33.244 J89.923 E.30711
G1 X146.923 Y72.408 E.2179
G3 X154.288 Y78.859 I-58.623 J74.358 E.30712
G1 X158.702 Y84.227 E.2179
G3 X163.712 Y92.638 I-78.73 J52.601 E.3071
G1 X166.251 Y99.108 E.21792
G3 X168.359 Y108.203 I-95.992 J27.045 E.29283
G1 X168.833 Y115.99 E.24461
G3 X167.942 Y125.343 I-98.292 J-4.638 E.2947
G1 X166.193 Y132.069 E.2179
G3 X162.334 Y141.067 I-88.828 J-32.774 E.30711
G1 X158.592 Y146.923 E.2179
G3 X152.473 Y153.975 I-78.307 J-61.765 E.29285
G1 X146.452 Y158.935 E.24459
G3 X138.362 Y163.712 I-54.027 J-82.254 E.29469
G1 X131.892 Y166.251 E.21792
G3 X122.344 Y168.417 I-25.718 J-91.222 E.30711
G1 X115.01 Y168.833 E.23032
G3 X105.657 Y167.942 I4.638 J-98.292 E.2947
G1 X98.931 Y166.193 E.2179
G3 X89.933 Y162.334 I32.774 J-88.829 E.30711
G1 X84.077 Y158.592 E.2179
G3 X77.025 Y152.473 I61.763 J-78.304 E.29285
G1 X72.065 Y146.452 E.24459
G3 X67.288 Y138.362 I82.255 J-54.027 E.29469
G1 X64.749 Y131.892 E.21792
G3 X62.583 Y122.344 I91.226 J-25.719 E.30711
G1 X62.167 Y115.01 E.23032
G3 X63.058 Y105.657 I98.291 J4.638 E.2947
G1 X64.807 Y98.931 E.2179
G3 X68.666 Y89.933 I88.924 J32.815 E.30711
G1 X72.408 Y84.077 E.2179
G3 X78.655 Y76.922 I74.36 J58.626 E.29794
G1 E-4.2 F1500
;WIPE_START
G1 F7200
G1 X78.697 Y76.879 E-.0119
G3 X78.859 Y76.712 I68.048 J65.848 E-.04605
G1 X84.227 Y72.298 E-1.37547
G3 X85.777 Y71.284 I52.594 J78.727 E-.36658
;WIPE_END
G1 X80.635 Y80.429 F9000
G1 E6 F2400
G1 F1200
G3 X82.65 Y79.831 I2.312 J4.095 E.06646
G3 X85.085 Y80.318 I.082 J5.919 E.07844
G1 X86.287 Y80.318 E.03769
G2 X86.323 Y79.703 I-.267 J-.324 E.02169
G3 X87.785 Y74.341 I4.562 J-1.636 E.18558
G3 X92.265 Y71.656 I32.915 J49.846 E.16382
G3 X97.453 Y72.644 I1.834 J4.487 E.17512
G1 X98.589 Y73.012 E.03744
G2 X98.813 Y72.435 I-.156 J-.393 E.02177
G3 X101.861 Y67.791 I4.841 J-.145 E.18549
G3 X106.95 Y66.622 I15.9 J57.574 E.16377
G3 X110.105 Y67.491 I.415 J4.654 E.10483
G3 X111.58 Y69.164 I-3.826 J4.86 E.07032
G1 X112.546 Y69.866 E.03744
G2 X112.949 Y69.335 I-.046 J-.454 E.02344
G3 X118.067 Y65.958 I4.567 J1.355 E.20886
G1 X120.614 Y66.151 E.08009
G3 X123.403 Y66.672 I-.377 J9.739 E.08928
G3 X126.099 Y70.233 I-2.346 J4.577 E.14486
G1 X126.792 Y71.187 E.03697
G2 X127.242 Y70.97 I.113 J-.341 E.01732
G3 X130.668 Y68.744 I4.244 J2.783 E.13184
G3 X134.208 Y69.549 I.161 J7.484 E.11497
G3 X137.744 Y71.207 I-15.581 J37.831 E.1225
G3 X139.57 Y75.727 I-3.098 J3.88 E.15977
G1 X139.933 Y76.845 E.03686
G2 X140.422 Y76.782 I.212 J-.286 E.01707
G3 X146.08 Y76.422 I3.078 J3.731 E.18993
G3 X150.005 Y79.842 I-37.137 J46.59 E.16328
G3 X151.166 Y82.609 I-3.511 J3.101 E.09577
G3 X150.682 Y85.085 I-5.944 J.123 E.07971
G1 X150.682 Y86.287 E.03769
G2 X151.167 Y86.379 I.29 J-.207 E.0171
G3 X156.66 Y87.786 I1.774 J4.5 E.18997
G3 X159.453 Y92.529 I-40.952 J27.312 E.17267
G3 X159.584 Y95.243 I-4.397 J1.572 E.08644
G3 X158.359 Y97.445 I-5.689 J-1.723 E.07961
G1 X157.988 Y98.589 E.03771
G2 X158.561 Y98.813 I.39 J-.154 E.02165
G3 X163.209 Y101.861 I.147 J4.845 E.1856
G3 X164.378 Y106.951 I-57.579 J15.901 E.1638
G3 X161.836 Y111.58 I-4.834 J.358 E.17511
G1 X161.134 Y112.546 E.03744
G2 X161.614 Y112.938 I.422 J-.027 E.02181
G3 X165.089 Y117.271 I-1.358 J4.648 E.18547
G3 X164.628 Y122.473 I-59.666 J-2.669 E.1638
G3 X162.826 Y125.205 I-4.555 J-1.044 E.10484
G3 X160.779 Y126.09 I-3.439 J-5.141 E.07031
G1 X159.813 Y126.792 E.03744
G2 X160.03 Y127.242 I.341 J.113 E.01732
G3 X162.256 Y130.668 I-2.783 J4.244 E.13184
G3 X161.449 Y134.214 I-7.496 J.159 E.11517
G3 X159.793 Y137.745 I-37.75 J-15.551 E.12233
G3 X155.273 Y139.569 I-3.88 J-3.099 E.15974
G1 X154.155 Y139.933 E.03687
G2 X154.218 Y140.422 I.286 J.212 E.01707
G3 X154.578 Y146.08 I-3.731 J3.078 E.18993
G3 X151.147 Y150.017 I-46.699 J-37.228 E.16379
G3 X148.35 Y151.169 I-3.094 J-3.541 E.09656
G3 X145.915 Y150.682 I-.082 J-5.919 E.07844
G1 X144.713 Y150.682 E.03769
G2 X144.621 Y151.167 I.207 J.29 E.0171
G3 X143.214 Y156.66 I-4.5 J1.774 E.18997
G3 X138.471 Y159.453 I-27.312 J-40.953 E.17267
G3 X135.757 Y159.584 I-1.572 J-4.397 E.08644
G3 X133.555 Y158.359 I1.723 J-5.689 E.07961
G1 X132.411 Y157.988 E.03771
G2 X132.187 Y158.561 I.154 J.39 E.02165
G3 X129.139 Y163.209 I-4.845 J.147 E.1856
G3 X124.049 Y164.378 I-15.901 J-57.579 E.1638
G3 X119.42 Y161.836 I-.358 J-4.834 E.17511
G1 X118.454 Y161.134 E.03744
G2 X118.062 Y161.614 I.027 J.422 E.02181
G3 X113.729 Y165.089 I-4.648 J-1.358 E.18547
G3 X108.527 Y164.628 I2.669 J-59.666 E.1638
G3 X105.795 Y162.826 I1.044 J-4.555 E.10484
G3 X104.91 Y160.779 I5.141 J-3.439 E.07031
G1 X104.208 Y159.813 E.03744
G2 X103.758 Y160.03 I-.113 J.341 E.01732
G3 X100.332 Y162.256 I-4.244 J-2.783 E.13184
G3 X96.786 Y161.449 I-.159 J-7.496 E.11517
G3 X93.255 Y159.793 I15.551 J-37.75 E.12233
G3 X91.43 Y155.273 I3.099 J-3.88 E.15975
G1 X91.067 Y154.155 E.03686
G2 X90.578 Y154.218 I-.212 J.286 E.01707
G3 X84.92 Y154.578 I-3.078 J-3.731 E.18993
G3 X80.995 Y151.158 I37.135 J-46.588 E.16328
G3 X79.834 Y148.391 I3.511 J-3.101 E.09577
G3 X80.318 Y145.915 I5.944 J-.123 E.07971
G1 X80.318 Y144.713 E.03769
G2 X79.833 Y144.621 I-.29 J.207 E.0171
G3 X74.34 Y143.214 I-1.774 J-4.5 E.18997
G3 X71.547 Y138.471 I40.952 J-27.312 E.17267
G3 X71.416 Y135.757 I4.397 J-1.572 E.08644
G3 X72.641 Y133.555 I5.69 J1.723 E.07961
G1 X73.012 Y132.411 E.03771
G2 X72.439 Y132.187 I-.39 J.154 E.02165
G3 X67.791 Y129.139 I-.147 J-4.845 E.1856
G3 X66.622 Y124.049 I57.58 J-15.901 E.1638
G3 X69.164 Y119.42 I4.834 J-.358 E.17511
G1 X69.866 Y118.454 E.03744
G2 X69.386 Y118.062 I-.422 J.027 E.02181
G3 X65.911 Y113.729 I1.358 J-4.648 E.18547
G3 X66.372 Y108.527 I59.666 J2.669 E.1638
G3 X68.174 Y105.795 I4.555 J1.044 E.10484
G3 X70.221 Y104.91 I3.439 J5.141 E.07031
G1 X71.187 Y104.208 E.03744
G2 X70.97 Y103.758 I-.341 J-.113 E.01732
G3 X68.744 Y100.332 I2.783 J-4.244 E.13184
G3 X69.551 Y96.786 I7.496 J-.159 E.11517
G3 X71.207 Y93.255 I37.752 J15.552 E.12233
G3 X75.727 Y91.431 I3.88 J3.099 E.15974
G1 X76.845 Y91.067 E.03687
G2 X76.782 Y90.578 I-.286 J-.212 E.01707
G3 X76.422 Y84.92 I3.731 J-3.078 E.18993
G3 X79.853 Y80.983 I46.704 J37.232 E.16379
G3 X80.583 Y80.459 I3.094 J3.541 E.02822
G1 X80.772 Y80.784 F9000
G1 F1200
G3 X82.677 Y80.208 I2.162 J3.709 E.06297
G3 X84.987 Y80.695 I.11 J5.198 E.07467
G1 X86.505 Y80.695 E.0476
G1 X86.903 Y80.005 E.02498
G3 X88.01 Y74.644 I3.86 J-1.997 E.18567
G3 X92.429 Y71.996 I32.491 J49.21 E.16158
G3 X95.423 Y71.869 I1.668 J3.941 E.09599
G3 X97.268 Y72.98 I-2.026 J5.453 E.06792
G1 X98.679 Y73.438 E.04651
G1 X99.271 Y72.905 E.02498
G3 X101.981 Y68.149 I4.287 J-.708 E.18567
G3 X107.001 Y66.996 I15.694 J56.84 E.16155
G3 X109.891 Y67.802 I.372 J4.253 E.09612
G3 X111.3 Y69.427 I-3.611 J4.555 E.06783
G1 X112.5 Y70.299 E.04651
G1 X113.229 Y69.975 E.02501
G3 X116.862 Y66.328 I4.293 J.644 E.17277
G3 X122.392 Y66.742 I-.141 J38.994 E.17402
G3 X125.73 Y70.367 I-1.065 J4.331 E.16369
G1 X126.615 Y71.584 E.04718
G1 X127.398 Y71.502 E.02468
G3 X130.726 Y69.118 I3.991 J2.057 E.13328
G3 X134.068 Y69.899 I.106 J7.091 E.10869
G3 X137.511 Y71.504 I-15.862 J38.516 E.11915
G3 X139.177 Y75.74 I-2.814 J3.553 E.14952
G1 X139.641 Y77.168 E.04708
G1 X140.412 Y77.332 E.02472
G3 X145.861 Y76.73 I3.099 J3.094 E.18573
G3 X149.735 Y80.106 I-36.688 J46.02 E.16117
G3 X150.79 Y82.646 I-3.211 J2.823 E.0878
G3 X150.305 Y84.987 I-5.217 J.14 E.07563
G1 X150.305 Y86.505 E.0476
G1 X150.987 Y86.898 E.02468
G3 X156.356 Y88.01 I1.991 J3.902 E.18575
G3 X159.096 Y92.651 I-41.423 J27.587 E.16907
G3 X159.215 Y95.161 I-4.013 J1.449 E.07997
G3 X158.03 Y97.236 I-5.004 J-1.481 E.07559
G1 X157.562 Y98.679 E.04756
G1 X158.095 Y99.271 E.02498
G3 X162.851 Y101.981 I.706 J4.289 E.18566
G3 X164.004 Y107.002 I-56.844 J15.695 E.16158
G3 X163.199 Y109.889 I-4.263 J.368 E.09601
G3 X161.573 Y111.3 I-4.559 J-3.612 E.06789
G1 X160.701 Y112.5 E.04651
G1 X161.025 Y113.228 E.02498
G3 X164.711 Y117.275 I-.652 J4.296 E.18568
G3 X164.256 Y122.406 I-58.903 J-2.639 E.16156
G3 X162.597 Y124.905 I-4.159 J-.961 E.0961
G3 X160.616 Y125.743 I-3.217 J-4.842 E.06783
G1 X159.416 Y126.615 E.04651
G1 X159.498 Y127.398 E.02468
G3 X161.882 Y130.726 I-2.057 J3.991 E.13328
G3 X161.099 Y134.074 I-7.103 J.104 E.10889
G3 X159.496 Y137.511 I-38.437 J-15.832 E.11895
G3 X155.26 Y139.177 I-3.553 J-2.814 E.14952
G1 X153.832 Y139.641 E.04708
G1 X153.668 Y140.412 E.02472
G3 X154.27 Y145.861 I-3.094 J3.099 E.18573
G3 X150.886 Y149.744 I-46.101 J-36.756 E.16155
G3 X148.323 Y150.792 I-2.82 J-3.237 E.0884
G3 X146.013 Y150.305 I-.11 J-5.198 E.07467
G1 X144.495 Y150.305 E.0476
G1 X144.102 Y150.987 E.02468
G3 X142.99 Y156.356 I-3.902 J1.991 E.18575
G3 X138.349 Y159.096 I-27.587 J-41.423 E.16907
G3 X135.839 Y159.215 I-1.449 J-4.013 E.07997
G3 X133.764 Y158.03 I1.481 J-5.003 E.07559
G1 X132.321 Y157.562 E.04756
G1 X131.729 Y158.095 E.02498
G3 X129.019 Y162.851 I-4.289 J.706 E.18566
G3 X123.998 Y164.004 I-15.695 J-56.845 E.16158
G3 X121.111 Y163.199 I-.368 J-4.263 E.09601
G3 X119.7 Y161.573 I3.612 J-4.559 E.06789
G1 X118.5 Y160.701 E.04651
G1 X117.772 Y161.025 E.02498
G3 X113.725 Y164.711 I-4.296 J-.652 E.18568
G3 X108.594 Y164.256 I2.639 J-58.903 E.16156
G3 X106.095 Y162.597 I.961 J-4.159 E.0961
G3 X105.257 Y160.616 I4.842 J-3.217 E.06783
G1 X104.385 Y159.416 E.04651
G1 X103.602 Y159.498 E.02468
G3 X100.274 Y161.882 I-3.991 J-2.057 E.13328
G3 X96.926 Y161.099 I-.104 J-7.103 E.10889
G3 X93.489 Y159.496 I15.833 J-38.438 E.11895
G3 X91.823 Y155.26 I2.814 J-3.553 E.14952
G1 X91.359 Y153.832 E.04708
G1 X90.588 Y153.668 E.02472
G3 X85.139 Y154.27 I-3.099 J-3.094 E.18573
