;FLAVOR:Marlin
;TIME:5879
;Filament used: 1.27502m
;Layer height: 0.2
;MINX:76.968
;MINY:82.851
;MINZ:0.2
;MAXX:143.032
;MAXY:137.149
;MAXZ:14.8
;POSTPROCESSED
;Generated with Cura_SteamEngine main
M140 S80
M105
M190 S80
M104 S225
M105
M109 S225
M82 ;absolute extrusion mode
; Ender 3 Custom Start G-code
G92 E0 ; Reset Extruder
G28 ; Home all axes

; G29 ; Reset level
; M104 S225.0
; M109 S225.0

G1 Z2.0 F3000 ; Move Z Axis up little to prevent scratching of Heat Bed
G1 X0.1 Y20 Z0.3 F5000.0 ; Move to start position
G1 X0.1 Y200.0 Z0.3 F1500.0 E15 ; Draw the first line
G1 X0.4 Y200.0 Z0.3 F5000.0 ; Move to side a little
G1 X0.4 Y20 Z0.3 F1500.0 E30 ; Draw the second line
G92 E0 ; Reset Extruder
G1 Z2.0 F3000 ; Move Z Axis up little to prevent scratching of Heat Bed
G1 X5 Y20 Z0.3 F5000.0 ; Move over to prevent blob squish
G92 E0
G92 E0
G1 F1200 E-9
;LAYER_COUNT:74
;LAYER:0
M107
G0 F6000 X82.399 Y85.992 Z0.2
G0 X79.853 Y89.327
;TYPE:SKIRT
G1 F1200 E0
G1 F600 X80.29 Y88.593 E0.02131
G1 X81.059 Y87.461 E0.05545
G1 X81.744 Y86.648 E0.08197
G1 X82.399 Y85.992 E0.10509
G1 X82.989 Y85.489 E0.12443
G1 X83.191 Y85.329 E0.13086
G1 X83.942 Y84.785 E0.15399
G1 X84.737 Y84.308 E0.17712
G1 X85.539 Y83.915 E0.1994
G1 X85.771 Y83.813 E0.20572
G1 X86.635 Y83.477 E0.22884
G1 X87.525 Y83.216 E0.25198
G1 X88.514 Y83.021 E0.27713
G1 X88.816 Y82.976 E0.28474
G1 X90.031 Y82.865 E0.31518
G1 X90.631 Y82.851 E0.33015
G1 X97.189 Y82.851 E0.49374
G1 X97.887 Y82.861 E0.51115
G1 X98.765 Y82.91 E0.53309
G1 X99.43 Y82.975 E0.54975
G1 X101.13 Y83.169 E0.59244
G1 X103.596 Y83.379 E0.65417
G1 X106.143 Y83.524 E0.71781
G1 X108.677 Y83.597 E0.78105
G1 X111.181 Y83.597 E0.84351
G1 X113.72 Y83.526 E0.90687
G1 X116.217 Y83.385 E0.96926
G1 X118.795 Y83.167 E1.0338
G1 X120.957 Y82.927 E1.08806
G1 X121.968 Y82.862 E1.11333
G1 X122.649 Y82.851 E1.13032
G1 X129.091 Y82.852 E1.29102
G1 X129.777 Y82.862 E1.30813
G1 X131.069 Y82.952 E1.34044
G1 X132.116 Y83.131 E1.36694
G1 X133.014 Y83.365 E1.39008
G1 X133.764 Y83.626 E1.40989
G1 X134.005 Y83.72 E1.41635
G1 X134.854 Y84.094 E1.43949
G1 X135.667 Y84.539 E1.46261
G1 X136.51 Y85.106 E1.48795
G1 X136.724 Y85.265 E1.4946
G1 X137.444 Y85.85 E1.51774
G1 X138.111 Y86.494 E1.54087
G1 X138.727 Y87.203 E1.5643
G1 X138.894 Y87.413 E1.57099
G1 X139.641 Y88.479 E1.60346
G1 X139.999 Y89.069 E1.62068
G1 X141.134 Y91.034 E1.67728
G1 X141.541 Y91.761 E1.69807
G1 X142.124 Y92.963 E1.73139
G1 X142.489 Y93.959 E1.75785
G1 X142.731 Y94.853 E1.78096
G1 X142.875 Y95.619 E1.8004
G1 X142.916 Y95.892 E1.80729
G1 X143.014 Y96.814 E1.83042
G1 X143.032 Y97.741 E1.85354
G1 X142.967 Y98.699 E1.8775
G1 X142.829 Y99.917 E1.90807
G1 X142.579 Y102.438 E1.97127
G1 X142.402 Y104.947 E2.03401
G1 X142.295 Y107.459 E2.09673
G1 X142.259 Y109.998 E2.16007
G1 X142.295 Y112.535 E2.22336
G1 X142.401 Y115.033 E2.28573
G1 X142.579 Y117.541 E2.34845
G1 X142.874 Y120.461 E2.42166
G1 X142.963 Y121.224 E2.44083
G1 X143.031 Y122.148 E2.46394
G1 X143.019 Y123.075 E2.48706
G1 X142.945 Y123.892 E2.50753
G1 X142.806 Y124.808 E2.53064
G1 X142.587 Y125.71 E2.55379
G1 X142.249 Y126.7 E2.57989
G1 X142.139 Y126.977 E2.58732
G1 X141.635 Y128.064 E2.61721
G1 X141.328 Y128.627 E2.63321
G1 X140.079 Y130.79 E2.69551
G1 X139.732 Y131.374 E2.71246
G1 X139.044 Y132.394 E2.74315
G1 X138.891 Y132.595 E2.74945
G1 X138.298 Y133.308 E2.77258
G1 X137.646 Y133.967 E2.79571
G1 X136.991 Y134.527 E2.81721
G1 X136.788 Y134.687 E2.82365
G1 X136.036 Y135.229 E2.84678
G1 X135.24 Y135.704 E2.8699
G1 X134.461 Y136.085 E2.89153
G1 X134.229 Y136.187 E2.89785
G1 X133.365 Y136.523 E2.92098
G1 X132.475 Y136.784 E2.94411
G1 X131.486 Y136.979 E2.96926
G1 X131.184 Y137.024 E2.97688
G1 X129.969 Y137.135 E3.00731
G1 X129.369 Y137.149 E3.02228
G1 X122.811 Y137.149 E3.18587
G1 X122.114 Y137.139 E3.20326
G1 X121.238 Y137.091 E3.22515
G1 X120.57 Y137.025 E3.24189
G1 X118.87 Y136.831 E3.28457
G1 X116.404 Y136.621 E3.34631
G1 X113.857 Y136.476 E3.40995
G1 X111.323 Y136.403 E3.47318
G1 X108.819 Y136.403 E3.53565
G1 X106.28 Y136.474 E3.59901
G1 X103.783 Y136.615 E3.66139
G1 X101.205 Y136.833 E3.72593
G1 X99.043 Y137.073 E3.78019
G1 X98.032 Y137.138 E3.80547
G1 X97.351 Y137.149 E3.82246
G1 X90.909 Y137.148 E3.98315
G1 X90.223 Y137.138 E4.00027
G1 X88.931 Y137.048 E4.03257
G1 X87.884 Y136.869 E4.05907
G1 X86.986 Y136.635 E4.08222
G1 X86.236 Y136.374 E4.10203
G1 X85.995 Y136.28 E4.10848
G1 X85.146 Y135.906 E4.13162
G1 X84.333 Y135.461 E4.15474
G1 X83.49 Y134.894 E4.18009
G1 X83.276 Y134.735 E4.18674
G1 X82.556 Y134.15 E4.20988
G1 X81.889 Y133.506 E4.23301
G1 X81.259 Y132.779 E4.257
G1 X81.088 Y132.563 E4.26388
G1 X80.383 Y131.56 E4.29446
G1 X80.06 Y131.03 E4.30994
G1 X78.861 Y128.956 E4.3697
G1 X78.459 Y128.238 E4.39023
G1 X77.875 Y127.033 E4.42363
G1 X77.509 Y126.034 E4.45017
G1 X77.267 Y125.139 E4.4733
G1 X77.121 Y124.355 E4.49319
G1 X77.081 Y124.085 E4.5
G1 X76.985 Y123.163 E4.52312
G1 X76.968 Y122.236 E4.54625
G1 X77.033 Y121.299 E4.56968
G1 X77.171 Y120.082 E4.60023
G1 X77.421 Y117.562 E4.6634
G1 X77.598 Y115.053 E4.72615
G1 X77.705 Y112.541 E4.78886
G1 X77.741 Y109.998 E4.85231
G1 X77.705 Y107.465 E4.9155
G1 X77.599 Y104.967 E4.97787
G1 X77.421 Y102.459 E5.04059
G1 X77.126 Y99.539 E5.1138
G1 X77.037 Y98.776 E5.13296
G1 X76.969 Y97.852 E5.15607
G1 X76.981 Y96.925 E5.1792
G1 X77.055 Y96.108 E5.19966
G1 X77.194 Y95.192 E5.22277
G1 X77.413 Y94.29 E5.24593
G1 X77.751 Y93.3 E5.27202
G1 X77.861 Y93.023 E5.27946
G1 X78.365 Y91.936 E5.30935
G1 X78.672 Y91.373 E5.32534
G1 X79.853 Y89.327 E5.38427
G1 F1200 E-3.61573
G0 F6000 X77.568 Y97.808
G1 F1200 E5.38427
G1 F600 X77.583 Y96.907 E5.40675
G1 X77.651 Y96.173 E5.42514
G1 X77.788 Y95.282 E5.44763
G1 X78.003 Y94.408 E5.47008
G1 X78.309 Y93.522 E5.49346
G1 X78.419 Y93.245 E5.50089
G1 X78.894 Y92.218 E5.52912
G1 X79.191 Y91.673 E5.5446
G1 X80.372 Y89.627 E5.60353
G1 X80.805 Y88.9 E5.62464
G1 X81.535 Y87.825 E5.65706
G1 X82.203 Y87.035 E5.68286
G1 X82.842 Y86.4 E5.70534
G1 X83.362 Y85.96 E5.72233
G1 X83.564 Y85.8 E5.72876
G1 X84.294 Y85.272 E5.75123
G1 X85.068 Y84.811 E5.7737
G1 X85.781 Y84.464 E5.79348
G1 X86.013 Y84.362 E5.7998
G1 X86.853 Y84.037 E5.82227
G1 X87.718 Y83.787 E5.84473
G1 X88.602 Y83.615 E5.8672
G1 X88.904 Y83.57 E5.87481
G1 X90.052 Y83.465 E5.90357
G1 X90.631 Y83.451 E5.91802
G1 X97.18 Y83.451 E6.08138
G1 X97.878 Y83.461 E6.0988
G1 X98.707 Y83.507 E6.11951
G1 X99.362 Y83.572 E6.13593
G1 X101.047 Y83.764 E6.17823
G1 X103.546 Y83.977 E6.2408
G1 X106.127 Y84.124 E6.30528
G1 X108.66 Y84.197 E6.3685
G1 X111.197 Y84.197 E6.43178
G1 X113.734 Y84.126 E6.49509
G1 X116.266 Y83.984 E6.55835
G1 X118.836 Y83.766 E6.62269
G1 X121.023 Y83.523 E6.67758
G1 X121.978 Y83.462 E6.70145
G1 X122.825 Y83.45 E6.72258
G1 X129.082 Y83.452 E6.87867
G1 X129.768 Y83.462 E6.89578
G1 X130.996 Y83.549 E6.92649
G1 X132.015 Y83.723 E6.95228
G1 X132.886 Y83.953 E6.97475
G1 X133.546 Y84.185 E6.9922
G1 X133.787 Y84.279 E6.99865
G1 X134.611 Y84.643 E7.02112
G1 X135.4 Y85.079 E7.04361
G1 X136.152 Y85.588 E7.06626
G1 X136.366 Y85.747 E7.07291
G1 X137.065 Y86.316 E7.0954
G1 X137.71 Y86.944 E7.11785
G1 X138.257 Y87.576 E7.1387
G1 X138.424 Y87.786 E7.14539
G1 X139.13 Y88.793 E7.17607
G1 X139.479 Y89.369 E7.19287
G1 X140.614 Y91.334 E7.24948
G1 X141.017 Y92.054 E7.27006
G1 X141.571 Y93.194 E7.30168
G1 X141.925 Y94.165 E7.32746
G1 X142.157 Y95.035 E7.34992
G1 X142.281 Y95.709 E7.36702
G1 X142.322 Y95.982 E7.3739
G1 X142.417 Y96.878 E7.39638
G1 X142.431 Y97.778 E7.41883
G1 X142.37 Y98.632 E7.44019
G1 X142.242 Y99.758 E7.46846
G1 X141.982 Y102.372 E7.53399
G1 X141.803 Y104.915 E7.59758
G1 X141.695 Y107.461 E7.66115
G1 X141.659 Y109.997 E7.72441
G1 X141.695 Y112.535 E7.78773
G1 X141.802 Y115.067 E7.85095
G1 X141.983 Y117.608 E7.91449
G1 X142.277 Y120.524 E7.9876
G1 X142.367 Y121.293 E8.00692
G1 X142.432 Y122.192 E8.0294
G1 X142.417 Y123.093 E8.05188
G1 X142.349 Y123.827 E8.07027
G1 X142.212 Y124.718 E8.09275
G1 X141.997 Y125.592 E8.11521
G1 X141.691 Y126.478 E8.13859
G1 X141.581 Y126.755 E8.14602
G1 X141.106 Y127.782 E8.17425
G1 X140.809 Y128.327 E8.18973
G1 X139.563 Y130.484 E8.25187
G1 X139.216 Y131.068 E8.26882
G1 X138.566 Y132.031 E8.2978
G1 X138.413 Y132.232 E8.3041
G1 X137.836 Y132.924 E8.32658
G1 X137.2 Y133.562 E8.34905
G1 X136.62 Y134.056 E8.36805
G1 X136.417 Y134.216 E8.3745
G1 X135.685 Y134.741 E8.39697
G1 X134.91 Y135.2 E8.41944
G1 X134.219 Y135.536 E8.43861
G1 X133.987 Y135.638 E8.44493
G1 X133.147 Y135.963 E8.4674
G1 X132.282 Y136.213 E8.48986
G1 X131.398 Y136.385 E8.51232
G1 X131.096 Y136.43 E8.51994
G1 X129.948 Y136.535 E8.54869
G1 X129.369 Y136.549 E8.56314
G1 X122.819 Y136.549 E8.72653
G1 X122.122 Y136.539 E8.74392
G1 X121.296 Y136.493 E8.76456
G1 X120.638 Y136.428 E8.78105
G1 X118.953 Y136.236 E8.82336
G1 X116.454 Y136.023 E8.88592
G1 X113.873 Y135.876 E8.95041
G1 X111.34 Y135.803 E9.01362
G1 X108.803 Y135.803 E9.0769
G1 X106.266 Y135.874 E9.14022
G1 X103.734 Y136.016 E9.20348
G1 X101.164 Y136.234 E9.26781
G1 X98.977 Y136.477 E9.32271
G1 X98.022 Y136.538 E9.34658
G1 X97.341 Y136.549 E9.36357
G1 X90.918 Y136.548 E9.52379
G1 X90.232 Y136.538 E9.5409
G1 X89.004 Y136.451 E9.57161
G1 X87.985 Y136.277 E9.5974
G1 X87.114 Y136.047 E9.61987
G1 X86.454 Y135.815 E9.63732
G1 X86.213 Y135.721 E9.64378
G1 X85.389 Y135.357 E9.66625
G1 X84.6 Y134.921 E9.68873
G1 X83.848 Y134.412 E9.71139
G1 X83.634 Y134.253 E9.71804
G1 X82.935 Y133.684 E9.74052
G1 X82.29 Y133.056 E9.76298
G1 X81.729 Y132.406 E9.78439
G1 X81.558 Y132.19 E9.79127
G1 X80.893 Y131.244 E9.82011
G1 X80.58 Y130.73 E9.83512
G1 X79.381 Y128.656 E9.89488
G1 X78.983 Y127.945 E9.91521
G1 X78.428 Y126.801 E9.94693
G1 X78.074 Y125.828 E9.97275
G1 X77.841 Y124.958 E9.99522
G1 X77.715 Y124.267 E10.01274
G1 X77.675 Y123.997 E10.01955
G1 X77.582 Y123.101 E10.04202
G1 X77.57 Y122.201 E10.06447
G1 X77.63 Y121.366 E10.08536
G1 X77.758 Y120.233 E10.1138
G1 X78.018 Y117.628 E10.1791
G1 X78.197 Y115.085 E10.2427
G1 X78.305 Y112.539 E10.30626
G1 X78.341 Y109.998 E10.36966
G1 X78.305 Y107.465 E10.43285
G1 X78.198 Y104.933 E10.49607
G1 X78.017 Y102.392 E10.55961
G1 X77.723 Y99.476 E10.63272
G1 X77.633 Y98.707 E10.65203
G1 X77.568 Y97.808 E10.67452
G0 F6000 X77.268 Y97.83
G1 F600 X77.282 Y96.916 E10.69732
G1 X77.353 Y96.141 E10.71673
G1 X77.491 Y95.237 E10.73955
G1 X77.708 Y94.349 E10.76235
G1 X78.03 Y93.411 E10.78709
G1 X78.14 Y93.134 E10.79452
G1 X78.629 Y92.077 E10.82357
G1 X78.932 Y91.523 E10.83933
G1 X80.19 Y89.344 E10.90209
G1 X80.547 Y88.746 E10.91946
G1 X81.297 Y87.644 E10.95272
G1 X81.973 Y86.841 E10.9789
G1 X82.621 Y86.196 E11.00171
G1 X83.176 Y85.724 E11.01988
G1 X83.378 Y85.564 E11.02631
G1 X84.118 Y85.029 E11.04909
G1 X84.903 Y84.56 E11.0719
G1 X85.66 Y84.19 E11.09292
G1 X85.892 Y84.088 E11.09924
G1 X86.744 Y83.757 E11.12204
G1 X87.622 Y83.502 E11.14485
G1 X88.558 Y83.318 E11.16864
G1 X88.86 Y83.273 E11.17626
G1 X90.041 Y83.165 E11.20584
G1 X90.631 Y83.151 E11.22056
G1 X97.185 Y83.151 E11.38405
G1 X97.883 Y83.161 E11.40147
G1 X98.736 Y83.208 E11.42278
G1 X99.396 Y83.273 E11.43932
G1 X101.104 Y83.468 E11.4822
G1 X103.59 Y83.68 E11.54444
G1 X106.118 Y83.824 E11.6076
G1 X108.668 Y83.897 E11.67124
G1 X111.189 Y83.897 E11.73413
G1 X113.746 Y83.826 E11.79794
G1 X116.223 Y83.686 E11.85982
G1 X118.815 Y83.466 E11.92471
G1 X120.99 Y83.225 E11.9793
G1 X121.973 Y83.162 E12.00387
G1 X122.825 Y83.15 E12.02513
G1 X129.086 Y83.152 E12.18131
G1 X129.772 Y83.162 E12.19842
G1 X131.033 Y83.25 E12.22996
G1 X132.066 Y83.427 E12.2561
G1 X132.95 Y83.659 E12.2789
G1 X133.655 Y83.905 E12.29752
G1 X133.896 Y83.999 E12.30398
G1 X134.733 Y84.368 E12.3268
G1 X135.533 Y84.809 E12.34958
G1 X136.331 Y85.347 E12.37359
G1 X136.545 Y85.506 E12.38024
G1 X137.255 Y86.083 E12.40306
G1 X137.911 Y86.719 E12.42586
G1 X138.492 Y87.39 E12.448
G1 X138.659 Y87.6 E12.45469
G1 X139.385 Y88.636 E12.48625
G1 X139.739 Y89.219 E12.50326
G1 X140.874 Y91.184 E12.55987
G1 X141.279 Y91.907 E12.58054
G1 X141.848 Y93.079 E12.61304
G1 X142.207 Y94.062 E12.63914
G1 X142.444 Y94.944 E12.66192
G1 X142.578 Y95.664 E12.68019
G1 X142.619 Y95.937 E12.68708
G1 X142.715 Y96.846 E12.70988
G1 X142.731 Y97.76 E12.73268
G1 X142.669 Y98.665 E12.75531
G1 X142.538 Y99.82 E12.78431
G1 X142.279 Y102.421 E12.84951
G1 X142.104 Y104.914 E12.91185
G1 X141.995 Y107.477 E12.97585
G1 X141.959 Y109.998 E13.03874
G1 X141.995 Y112.517 E13.10158
G1 X142.103 Y115.069 E13.1653
G1 X142.282 Y117.59 E13.22834
G1 X142.572 Y120.465 E13.30042
G1 X142.665 Y121.259 E13.32037
G1 X142.732 Y122.17 E13.34315
G1 X142.718 Y123.084 E13.36595
G1 X142.647 Y123.859 E13.38537
G1 X142.509 Y124.763 E13.40818
G1 X142.292 Y125.651 E13.43098
G1 X141.97 Y126.589 E13.45572
G1 X141.86 Y126.866 E13.46316
G1 X141.371 Y127.923 E13.49221
G1 X141.068 Y128.477 E13.50796
G1 X139.821 Y130.637 E13.57018
G1 X139.474 Y131.221 E13.58712
G1 X138.805 Y132.212 E13.61695
G1 X138.652 Y132.413 E13.62325
G1 X138.067 Y133.116 E13.64606
G1 X137.423 Y133.765 E13.66887
G1 X136.806 Y134.291 E13.6891
G1 X136.603 Y134.451 E13.69554
G1 X135.861 Y134.985 E13.71835
G1 X135.075 Y135.452 E13.74115
G1 X134.34 Y135.81 E13.76155
G1 X134.108 Y135.912 E13.76787
G1 X133.256 Y136.243 E13.79067
G1 X132.378 Y136.498 E13.81348
G1 X131.442 Y136.682 E13.83727
G1 X131.14 Y136.727 E13.84489
G1 X129.959 Y136.835 E13.87447
G1 X129.369 Y136.849 E13.88919
G1 X122.815 Y136.849 E14.05268
G1 X122.118 Y136.839 E14.07007
G1 X121.267 Y136.792 E14.09133
G1 X120.604 Y136.727 E14.10795
G1 X118.896 Y136.532 E14.15083
G1 X116.41 Y136.32 E14.21307
G1 X113.882 Y136.176 E14.27624
G1 X111.332 Y136.103 E14.33987
G1 X108.811 Y136.103 E14.40276
G1 X106.254 Y136.174 E14.46657
G1 X103.777 Y136.314 E14.52846
G1 X101.185 Y136.534 E14.59335
G1 X99.01 Y136.775 E14.64793
G1 X98.027 Y136.838 E14.6725
G1 X97.346 Y136.849 E14.68949
G1 X90.914 Y136.848 E14.84994
G1 X90.228 Y136.838 E14.86706
G1 X88.967 Y136.75 E14.89859
G1 X87.934 Y136.573 E14.92473
G1 X87.05 Y136.341 E14.94753
G1 X86.345 Y136.095 E14.96616
G1 X86.104 Y136.001 E14.97261
G1 X85.267 Y135.632 E14.99543
G1 X84.467 Y135.191 E15.01821
G1 X83.669 Y134.653 E15.04222
G1 X83.455 Y134.494 E15.04887
G1 X82.745 Y133.917 E15.07169
G1 X82.089 Y133.281 E15.09449
G1 X81.494 Y132.592 E15.1172
G1 X81.323 Y132.376 E15.12407
G1 X80.638 Y131.402 E15.15377
G1 X80.32 Y130.88 E15.16902
G1 X79.121 Y128.806 E15.22878
G1 X78.721 Y128.091 E15.24922
G1 X78.152 Y126.918 E15.28174
G1 X77.791 Y125.931 E15.30795
G1 X77.554 Y125.048 E15.33076
G1 X77.418 Y124.311 E15.34945
G1 X77.378 Y124.041 E15.35626
G1 X77.284 Y123.132 E15.37906
G1 X77.269 Y122.218 E15.40186
G1 X77.332 Y121.333 E15.42399
G1 X77.456 Y120.244 E15.45133
G1 X77.721 Y117.579 E15.51814
G1 X77.896 Y115.086 E15.58048
G1 X78.005 Y112.523 E15.64447
G1 X78.041 Y109.998 E15.70747
G1 X78.005 Y107.483 E15.77021
G1 X77.897 Y104.931 E15.83393
G1 X77.718 Y102.41 E15.89697
G1 X77.428 Y99.535 E15.96905
G1 X77.335 Y98.741 E15.98899
G1 X77.268 Y97.83 E16.01178
G1 F1200 E7.01178
;MESH:nazgul_f5gopro10_mount-Body.stl
G0 F6000 X88.074 Y97.5
G0 X88.57 Y97.553
G1 F1200 E16.01178
G0 F6000 X88.467 Y97.595
;TYPE:WALL-INNER
G1 F600 X90.178 Y100.555 E16.09707
G1 X90.339 Y100.649 E16.10172
G1 X94.227 Y100.65 E16.1987
G1 X94.804 Y100.842 E16.21387
G1 X98.292 Y103.524 E16.32363
G1 X98.566 Y103.957 E16.33641
G1 X98.748 Y104.451 E16.34954
G1 X98.746 Y115.514 E16.62551
G1 X98.568 Y115.995 E16.63831
G1 X98.297 Y116.427 E16.65103
G1 X94.863 Y119.112 E16.75976
G1 X94.636 Y119.218 E16.76601
G1 X94.037 Y119.35 E16.78131
G1 X90.34 Y119.35 E16.87354
G1 X90.18 Y119.444 E16.87817
G1 X88.468 Y122.403 E16.96344
